bernoullicharts/exp_x_1-x__bound.svg

<?xml version="1.0" encoding="utf-8" standalone="no"?>
<!DOCTYPE svg PUBLIC "-//W3C//DTD SVG 1.1//EN"
  "http://www.w3.org/Graphics/SVG/1.1/DTD/svg11.dtd">
<!-- Created with matplotlib (https://matplotlib.org/) -->
<svg height="345.6pt" version="1.1" viewBox="0 0 460.8 345.6" width="460.8pt" xmlns="http://www.w3.org/2000/svg" xmlns:xlink="http://www.w3.org/1999/xlink">
 <defs>
  <style type="text/css">
*{stroke-linecap:butt;stroke-linejoin:round;}
  </style>
 </defs>
 <g id="figure_1">
  <g id="patch_1">
   <path d="M 0 345.6 
L 460.8 345.6 
L 460.8 0 
L 0 0 
z
" style="fill:#ffffff;"/>
  </g>
  <g id="axes_1">
   <g id="patch_2">
    <path d="M 57.6 307.584 
L 414.72 307.584 
L 414.72 41.472 
L 57.6 41.472 
z
" style="fill:#ffffff;"/>
   </g>
   <g id="matplotlib.axis_1">
    <g id="xtick_1">
     <g id="line2d_1">
      <defs>
       <path d="M 0 0 
L 0 3.5 
" id="mb6e9e9c486" style="stroke:#000000;stroke-width:0.8;"/>
      </defs>
      <g>
       <use style="stroke:#000000;stroke-width:0.8;" x="73.800255" xlink:href="#mb6e9e9c486" y="307.584"/>
      </g>
     </g>
     <g id="text_1">
      <text style="font-family:DejaVu Sans;font-size:10px;font-style:normal;font-weight:normal;text-anchor:middle;" transform="rotate(-0, 73.800255, 322.182437)" x="73.800255" y="322.182437">0.0</text>
     </g>
    </g>
    <g id="xtick_2">
     <g id="line2d_2">
      <g>
       <use style="stroke:#000000;stroke-width:0.8;" x="138.744153" xlink:href="#mb6e9e9c486" y="307.584"/>
      </g>
     </g>
     <g id="text_2">
      <text style="font-family:DejaVu Sans;font-size:10px;font-style:normal;font-weight:normal;text-anchor:middle;" transform="rotate(-0, 138.744153, 322.182437)" x="138.744153" y="322.182437">0.2</text>
     </g>
    </g>
    <g id="xtick_3">
     <g id="line2d_3">
      <g>
       <use style="stroke:#000000;stroke-width:0.8;" x="203.688051" xlink:href="#mb6e9e9c486" y="307.584"/>
      </g>
     </g>
     <g id="text_3">
      <text style="font-family:DejaVu Sans;font-size:10px;font-style:normal;font-weight:normal;text-anchor:middle;" transform="rotate(-0, 203.688051, 322.182437)" x="203.688051" y="322.182437">0.4</text>
     </g>
    </g>
    <g id="xtick_4">
     <g id="line2d_4">
      <g>
       <use style="stroke:#000000;stroke-width:0.8;" x="268.631949" xlink:href="#mb6e9e9c486" y="307.584"/>
      </g>
     </g>
     <g id="text_4">
      <text style="font-family:DejaVu Sans;font-size:10px;font-style:normal;font-weight:normal;text-anchor:middle;" transform="rotate(-0, 268.631949, 322.182437)" x="268.631949" y="322.182437">0.6</text>
     </g>
    </g>
    <g id="xtick_5">
     <g id="line2d_5">
      <g>
       <use style="stroke:#000000;stroke-width:0.8;" x="333.575847" xlink:href="#mb6e9e9c486" y="307.584"/>
      </g>
     </g>
     <g id="text_5">
      <text style="font-family:DejaVu Sans;font-size:10px;font-style:normal;font-weight:normal;text-anchor:middle;" transform="rotate(-0, 333.575847, 322.182437)" x="333.575847" y="322.182437">0.8</text>
     </g>
    </g>
    <g id="xtick_6">
     <g id="line2d_6">
      <g>
       <use style="stroke:#000000;stroke-width:0.8;" x="398.519745" xlink:href="#mb6e9e9c486" y="307.584"/>
      </g>
     </g>
     <g id="text_6">
      <text style="font-family:DejaVu Sans;font-size:10px;font-style:normal;font-weight:normal;text-anchor:middle;" transform="rotate(-0, 398.519745, 322.182437)" x="398.519745" y="322.182437">1.0</text>
     </g>
    </g>
    <g id="text_7">
     <text style="font-family:DejaVu Sans;font-size:10px;font-style:normal;font-weight:normal;text-anchor:middle;" transform="rotate(-0, 236.16, 335.860562)" x="236.16" y="335.860562">Input Coin's Heads Probability (λ)</text>
    </g>
   </g>
   <g id="matplotlib.axis_2">
    <g id="ytick_1">
     <g id="line2d_7">
      <defs>
       <path d="M 0 0 
L -3.5 0 
" id="m8bb7a34227" style="stroke:#000000;stroke-width:0.8;"/>
      </defs>
      <g>
       <use style="stroke:#000000;stroke-width:0.8;" x="57.6" xlink:href="#m8bb7a34227" y="295.505649"/>
      </g>
     </g>
     <g id="text_8">
      <text style="font-family:DejaVu Sans;font-size:10px;font-style:normal;font-weight:normal;text-anchor:end;" transform="rotate(-0, 50.6, 299.304867)" x="50.6" y="299.304867">0.0</text>
     </g>
    </g>
    <g id="ytick_2">
     <g id="line2d_8">
      <g>
       <use style="stroke:#000000;stroke-width:0.8;" x="57.6" xlink:href="#m8bb7a34227" y="251.388645"/>
      </g>
     </g>
     <g id="text_9">
      <text style="font-family:DejaVu Sans;font-size:10px;font-style:normal;font-weight:normal;text-anchor:end;" transform="rotate(-0, 50.6, 255.187864)" x="50.6" y="255.187864">0.5</text>
     </g>
    </g>
    <g id="ytick_3">
     <g id="line2d_9">
      <g>
       <use style="stroke:#000000;stroke-width:0.8;" x="57.6" xlink:href="#m8bb7a34227" y="207.271641"/>
      </g>
     </g>
     <g id="text_10">
      <text style="font-family:DejaVu Sans;font-size:10px;font-style:normal;font-weight:normal;text-anchor:end;" transform="rotate(-0, 50.6, 211.07086)" x="50.6" y="211.07086">1.0</text>
     </g>
    </g>
    <g id="ytick_4">
     <g id="line2d_10">
      <g>
       <use style="stroke:#000000;stroke-width:0.8;" x="57.6" xlink:href="#m8bb7a34227" y="163.154637"/>
      </g>
     </g>
     <g id="text_11">
      <text style="font-family:DejaVu Sans;font-size:10px;font-style:normal;font-weight:normal;text-anchor:end;" transform="rotate(-0, 50.6, 166.953856)" x="50.6" y="166.953856">1.5</text>
     </g>
    </g>
    <g id="ytick_5">
     <g id="line2d_11">
      <g>
       <use style="stroke:#000000;stroke-width:0.8;" x="57.6" xlink:href="#m8bb7a34227" y="119.037634"/>
      </g>
     </g>
     <g id="text_12">
      <text style="font-family:DejaVu Sans;font-size:10px;font-style:normal;font-weight:normal;text-anchor:end;" transform="rotate(-0, 50.6, 122.836852)" x="50.6" y="122.836852">2.0</text>
     </g>
    </g>
    <g id="ytick_6">
     <g id="line2d_12">
      <g>
       <use style="stroke:#000000;stroke-width:0.8;" x="57.6" xlink:href="#m8bb7a34227" y="74.92063"/>
      </g>
     </g>
     <g id="text_13">
      <text style="font-family:DejaVu Sans;font-size:10px;font-style:normal;font-weight:normal;text-anchor:end;" transform="rotate(-0, 50.6, 78.719849)" x="50.6" y="78.719849">2.5</text>
     </g>
    </g>
    <g id="text_14">
     <text style="font-family:DejaVu Sans;font-size:10px;font-style:normal;font-weight:normal;text-anchor:middle;" transform="rotate(-90, 28.617187, 174.528)" x="28.617187" y="174.528">Coin Flips Needed</text>
    </g>
   </g>
   <g id="line2d_13">
    <path clip-path="url(#pc43e6abf41)" d="M 73.832727 295.488 
L 77.112066 293.699728 
L 80.391405 291.899427 
L 83.670744 290.087066 
L 86.950083 288.262616 
L 90.229421 286.426047 
L 93.50876 284.577329 
L 96.788099 282.716431 
L 100.067438 280.843324 
L 103.346777 278.957979 
L 106.626116 277.060365 
L 109.905455 275.150454 
L 113.184793 273.228216 
L 116.464132 271.293621 
L 119.743471 269.346641 
L 123.02281 267.387245 
L 126.302149 265.415406 
L 129.581488 263.431094 
L 132.860826 261.43428 
L 136.140165 259.424936 
L 139.419504 257.403032 
L 142.698843 255.36854 
L 145.978182 253.321431 
L 149.257521 251.261678 
L 152.53686 249.189251 
L 155.816198 247.104122 
L 159.095537 245.006264 
L 162.374876 242.895647 
L 165.654215 240.772245 
L 168.933554 238.636028 
L 172.212893 236.48697 
L 175.492231 234.325042 
L 178.77157 232.150217 
L 182.050909 229.962467 
L 185.330248 227.761765 
L 188.609587 225.548083 
L 191.888926 223.321393 
L 195.168264 221.08167 
L 198.447603 218.828886 
L 201.726942 216.563013 
L 205.006281 214.284024 
L 208.28562 211.991894 
L 211.564959 209.686594 
L 214.844298 207.368099 
L 218.123636 205.036381 
L 221.402975 202.691415 
L 224.682314 200.333174 
L 227.961653 197.961632 
L 231.240992 195.576762 
L 234.520331 193.178538 
L 237.799669 190.766934 
L 241.079008 188.341925 
L 244.358347 185.903484 
L 247.637686 183.451586 
L 250.917025 180.986206 
L 254.196364 178.507316 
L 257.475702 176.014893 
L 260.755041 173.50891 
L 264.03438 170.989343 
L 267.313719 168.456166 
L 270.593058 165.909354 
L 273.872397 163.348883 
L 277.151736 160.774726 
L 280.431074 158.18686 
L 283.710413 155.58526 
L 286.989752 152.9699 
L 290.269091 150.340758 
L 293.54843 147.697807 
L 296.827769 145.041024 
L 300.107107 142.370384 
L 303.386446 139.685864 
L 306.665785 136.987439 
L 309.945124 134.275086 
L 313.224463 131.54878 
L 316.503802 128.808497 
L 319.78314 126.054215 
L 323.062479 123.285909 
L 326.341818 120.503555 
L 329.621157 117.707131 
L 332.900496 114.896614 
L 336.179835 112.071979 
L 339.459174 109.233204 
L 342.738512 106.380266 
L 346.017851 103.513142 
L 349.29719 100.631809 
L 352.576529 97.736244 
L 355.855868 94.826424 
L 359.135207 91.902328 
L 362.414545 88.963932 
L 365.693884 86.011215 
L 368.973223 83.044153 
L 372.252562 80.062725 
L 375.531901 77.066909 
L 378.81124 74.056683 
L 382.090579 71.032024 
L 385.369917 67.992912 
L 388.649256 64.939323 
L 391.928595 61.871237 
L 395.207934 58.788633 
L 398.487273 55.691488 
" style="fill:none;stroke:#1f77b4;stroke-linecap:square;stroke-width:1.5;"/>
   </g>
   <g id="line2d_14">
    <path clip-path="url(#pc43e6abf41)" d="M 73.832727 207.271641 
L 77.112066 206.212833 
L 80.391405 205.859897 
L 83.670744 203.742281 
L 86.950083 203.565813 
L 90.229421 202.859941 
L 93.50876 201.095261 
L 96.788099 201.095261 
L 100.067438 200.742325 
L 103.346777 198.271772 
L 106.626116 198.977644 
L 109.905455 197.389432 
L 113.184793 196.507092 
L 116.464132 194.389476 
L 119.743471 196.860028 
L 123.02281 190.683648 
L 126.302149 192.095392 
L 129.581488 189.448372 
L 132.860826 191.918924 
L 136.140165 188.918968 
L 139.419504 184.860203 
L 142.698843 188.389563 
L 145.978182 183.448459 
L 149.257521 185.036671 
L 152.53686 182.919055 
L 155.816198 182.389651 
L 159.095537 180.624971 
L 162.374876 177.801483 
L 165.654215 177.625015 
L 168.933554 179.566163 
L 172.212893 177.977951 
L 175.492231 174.272122 
L 178.77157 171.272166 
L 182.050909 171.978038 
L 185.330248 174.44859 
L 188.609587 173.213314 
L 191.888926 170.03689 
L 195.168264 170.389826 
L 198.447603 166.50753 
L 201.726942 164.742849 
L 205.006281 161.919361 
L 208.28562 168.978082 
L 211.564959 161.919361 
L 214.844298 158.742937 
L 218.123636 161.037021 
L 221.402975 158.213533 
L 224.682314 157.331193 
L 227.961653 150.625408 
L 231.240992 153.978301 
L 234.520331 155.919449 
L 237.799669 148.331324 
L 241.079008 151.33128 
L 244.358347 146.566644 
L 247.637686 142.860816 
L 250.917025 148.507792 
L 254.196364 147.272516 
L 257.475702 136.684435 
L 260.755041 144.625496 
L 264.03438 134.037415 
L 267.313719 130.155119 
L 270.593058 131.213927 
L 273.872397 127.33163 
L 277.151736 129.449246 
L 280.431074 126.802226 
L 283.710413 127.684566 
L 286.989752 124.861078 
L 290.269091 123.625802 
L 293.54843 125.919886 
L 296.827769 120.978782 
L 300.107107 111.802445 
L 303.386446 115.508273 
L 306.665785 116.037677 
L 309.945124 110.214233 
L 313.224463 106.684873 
L 316.503802 111.096573 
L 319.78314 103.155512 
L 323.062479 105.273128 
L 326.341818 97.1556 
L 329.621157 98.567344 
L 332.900496 95.39092 
L 336.179835 95.39092 
L 339.459174 103.33198 
L 342.738512 91.685091 
L 346.017851 96.096792 
L 349.29719 89.391007 
L 352.576529 85.685179 
L 355.855868 89.038071 
L 359.135207 83.214627 
L 362.414545 82.86169 
L 365.693884 78.44999 
L 368.973223 77.56765 
L 372.252562 72.097142 
L 375.531901 68.038377 
L 378.81124 68.744249 
L 382.090579 75.626502 
L 385.369917 68.567781 
L 388.649256 64.509017 
L 391.928595 61.332593 
L 395.207934 58.156168 
L 398.487273 53.568 
" style="fill:none;stroke:#ff7f0e;stroke-linecap:square;stroke-width:1.5;"/>
   </g>
   <g id="patch_3">
    <path d="M 57.6 307.584 
L 57.6 41.472 
" style="fill:none;stroke:#000000;stroke-linecap:square;stroke-linejoin:miter;stroke-width:0.8;"/>
   </g>
   <g id="patch_4">
    <path d="M 414.72 307.584 
L 414.72 41.472 
" style="fill:none;stroke:#000000;stroke-linecap:square;stroke-linejoin:miter;stroke-width:0.8;"/>
   </g>
   <g id="patch_5">
    <path d="M 57.6 307.584 
L 414.72 307.584 
" style="fill:none;stroke:#000000;stroke-linecap:square;stroke-linejoin:miter;stroke-width:0.8;"/>
   </g>
   <g id="patch_6">
    <path d="M 57.6 41.472 
L 414.72 41.472 
" style="fill:none;stroke:#000000;stroke-linecap:square;stroke-linejoin:miter;stroke-width:0.8;"/>
   </g>
   <g id="text_15">
    <text style="font-family:DejaVu Sans;font-size:12px;font-style:normal;font-weight:normal;text-anchor:middle;" transform="rotate(-0, 236.16, 35.472)" x="236.16" y="35.472">Coin Flips for exp(x)*(1-x)</text>
   </g>
   <g id="legend_1">
    <g id="patch_7">
     <path d="M 64.6 78.82825 
L 252.535938 78.82825 
Q 254.535938 78.82825 254.535938 76.82825 
L 254.535938 48.472 
Q 254.535938 46.472 252.535938 46.472 
L 64.6 46.472 
Q 62.6 46.472 62.6 48.472 
L 62.6 76.82825 
Q 62.6 78.82825 64.6 78.82825 
z
" style="fill:#ffffff;opacity:0.8;stroke:#cccccc;stroke-linejoin:miter;"/>
    </g>
    <g id="line2d_15">
     <path d="M 66.6 54.570437 
L 86.6 54.570437 
" style="fill:none;stroke:#1f77b4;stroke-linecap:square;stroke-width:1.5;"/>
    </g>
    <g id="line2d_16"/>
    <g id="text_16">
     <text style="font-family:DejaVu Sans;font-size:10px;font-style:normal;font-weight:normal;text-anchor:start;" transform="rotate(-0, 94.6, 58.070437)" x="94.6" y="58.070437">Coin Flip Lower Bound (Mendo)</text>
    </g>
    <g id="line2d_17">
     <path d="M 66.6 69.248562 
L 86.6 69.248562 
" style="fill:none;stroke:#ff7f0e;stroke-linecap:square;stroke-width:1.5;"/>
    </g>
    <g id="line2d_18"/>
    <g id="text_17">
     <text style="font-family:DejaVu Sans;font-size:10px;font-style:normal;font-weight:normal;text-anchor:start;" transform="rotate(-0, 94.6, 72.748562)" x="94.6" y="72.748562">Avg. Coins Flipped exp(x)*(1-x)</text>
    </g>
   </g>
  </g>
 </g>
 <defs>
  <clipPath id="pc43e6abf41">
   <rect height="266.112" width="357.12" x="57.6" y="41.472"/>
  </clipPath>
 </defs>
</svg>

<svg height="460.8" viewBox="0 0 460.8 345.6" width="614.4" xmlns="http://www.w3.org/2000/svg" xmlns:xlink="http://www.w3.org/1999/xlink"><defs><style>*{stroke-linecap:butt;stroke-linejoin:round}</style></defs><g id="figure_1"><path d="M0 345.6h460.8V0H0z" fill="#fff" id="patch_1"/><g id="axes_1"><path d="M57.6 307.584h357.12V41.472H57.6z" fill="#fff" id="patch_2"/><g id="matplotlib.axis_1"><g id="xtick_1"><g id="line2d_1"><defs><path d="M0 0v3.5" id="mb6e9e9c486" stroke="#000" stroke-width=".8"/></defs><use x="73.8" xlink:href="#mb6e9e9c486" y="307.584" stroke="#000" stroke-width=".8"/></g><text x="73.8" y="322.182" font-family="DejaVu Sans" font-size="10" font-weight="400" text-anchor="middle" id="text_1">0.0</text></g><g id="xtick_2"><use x="138.744" xlink:href="#mb6e9e9c486" y="307.584" stroke="#000" stroke-width=".8" id="line2d_2"/><text x="138.744" y="322.182" font-family="DejaVu Sans" font-size="10" font-weight="400" text-anchor="middle" id="text_2">0.2</text></g><g id="xtick_3"><use x="203.688" xlink:href="#mb6e9e9c486" y="307.584" stroke="#000" stroke-width=".8" id="line2d_3"/><text x="203.688" y="322.182" font-family="DejaVu Sans" font-size="10" font-weight="400" text-anchor="middle" id="text_3">0.4</text></g><g id="xtick_4"><use x="268.632" xlink:href="#mb6e9e9c486" y="307.584" stroke="#000" stroke-width=".8" id="line2d_4"/><text x="268.632" y="322.182" font-family="DejaVu Sans" font-size="10" font-weight="400" text-anchor="middle" id="text_4">0.6</text></g><g id="xtick_5"><use x="333.576" xlink:href="#mb6e9e9c486" y="307.584" stroke="#000" stroke-width=".8" id="line2d_5"/><text x="333.576" y="322.182" font-family="DejaVu Sans" font-size="10" font-weight="400" text-anchor="middle" id="text_5">0.8</text></g><g id="xtick_6"><use x="398.52" xlink:href="#mb6e9e9c486" y="307.584" stroke="#000" stroke-width=".8" id="line2d_6"/><text x="398.52" y="322.182" font-family="DejaVu Sans" font-size="10" font-weight="400" text-anchor="middle" id="text_6">1.0</text></g><text x="236.16" y="335.861" font-family="DejaVu Sans" font-size="10" font-weight="400" text-anchor="middle" id="text_7">Input Coin&apos;s Heads Probability (λ)</text></g><g id="matplotlib.axis_2"><g id="ytick_1"><g id="line2d_7"><defs><path d="M0 0h-3.5" id="m8bb7a34227" stroke="#000" stroke-width=".8"/></defs><use x="57.6" xlink:href="#m8bb7a34227" y="295.506" stroke="#000" stroke-width=".8"/></g><text x="50.6" y="299.305" font-family="DejaVu Sans" font-size="10" font-weight="400" text-anchor="end" id="text_8">0.0</text></g><g id="ytick_2"><use x="57.6" xlink:href="#m8bb7a34227" y="251.389" stroke="#000" stroke-width=".8" id="line2d_8"/><text x="50.6" y="255.188" font-family="DejaVu Sans" font-size="10" font-weight="400" text-anchor="end" id="text_9">0.5</text></g><g id="ytick_3"><use x="57.6" xlink:href="#m8bb7a34227" y="207.272" stroke="#000" stroke-width=".8" id="line2d_9"/><text x="50.6" y="211.071" font-family="DejaVu Sans" font-size="10" font-weight="400" text-anchor="end" id="text_10">1.0</text></g><g id="ytick_4"><use x="57.6" xlink:href="#m8bb7a34227" y="163.155" stroke="#000" stroke-width=".8" id="line2d_10"/><text x="50.6" y="166.954" font-family="DejaVu Sans" font-size="10" font-weight="400" text-anchor="end" id="text_11">1.5</text></g><g id="ytick_5"><use x="57.6" xlink:href="#m8bb7a34227" y="119.038" stroke="#000" stroke-width=".8" id="line2d_11"/><text x="50.6" y="122.837" font-family="DejaVu Sans" font-size="10" font-weight="400" text-anchor="end" id="text_12">2.0</text></g><g id="ytick_6"><use x="57.6" xlink:href="#m8bb7a34227" y="74.921" stroke="#000" stroke-width=".8" id="line2d_12"/><text x="50.6" y="78.72" font-family="DejaVu Sans" font-size="10" font-weight="400" text-anchor="end" id="text_13">2.5</text></g><text transform="rotate(-90 28.617 174.528)" x="28.617" y="174.528" font-family="DejaVu Sans" font-size="10" font-weight="400" text-anchor="middle" id="text_14">Coin Flips Needed</text></g><path clip-path="url(#pc43e6abf41)" d="M73.833 295.488l3.28-1.788 3.278-1.8 3.28-1.813 3.28-1.824 3.278-1.837 3.28-1.849 3.28-1.86 3.278-1.874 3.28-1.885 3.28-1.898 3.278-1.91 3.28-1.922 3.28-1.934 3.278-1.947 3.28-1.96 3.28-1.972 3.278-1.984 3.28-1.997 3.28-2.01 3.279-2.021 3.279-2.034 3.28-2.048 3.279-2.06 3.279-2.072 3.28-2.085 3.279-2.098 3.279-2.11 3.28-2.124 3.279-2.136 3.279-2.149 3.28-2.162 3.279-2.175 3.279-2.188 3.28-2.2 3.279-2.214 3.279-2.227 3.28-2.24 3.279-2.252 3.279-2.266 3.28-2.279 3.279-2.292 3.279-2.305 3.28-2.319 3.279-2.332 3.279-2.345 3.28-2.358 3.279-2.371 3.279-2.385 3.28-2.398 3.279-2.412 3.279-2.425 3.28-2.439 3.279-2.451 3.279-2.466 3.28-2.479 3.279-2.492 3.279-2.506 3.28-2.52 3.279-2.533 3.28-2.547 3.278-2.56 3.28-2.574 3.28-2.588 3.278-2.602 3.28-2.615 3.28-2.63 3.278-2.642 3.28-2.657 3.28-2.67 3.278-2.685 3.28-2.699 3.28-2.712 3.278-2.726 3.28-2.74 3.28-2.755 3.278-2.768 3.28-2.782 3.28-2.797 3.278-2.81 3.28-2.825 3.28-2.839 3.279-2.853 3.279-2.867 3.28-2.881 3.279-2.896 3.279-2.91 3.28-2.924 3.279-2.938 3.279-2.953 3.28-2.967 3.279-2.981 3.279-2.996 3.28-3.01 3.279-3.025 3.279-3.04 3.28-3.053 3.279-3.068 3.279-3.082 3.28-3.098" fill="none" stroke="#1f77b4" stroke-linecap="square" stroke-width="1.5" id="line2d_13"/><path clip-path="url(#pc43e6abf41)" d="M73.833 207.272l3.28-1.06 3.278-.352 3.28-2.118 3.28-.176 3.278-.706 3.28-1.765h3.28l3.278-.353 3.28-2.47 3.28.706 3.278-1.589 3.28-.882 3.28-2.118 3.278 2.471 3.28-6.176 3.28 1.411 3.278-2.647 3.28 2.47 3.28-2.999 3.279-4.059 3.279 3.53 3.28-4.942 3.279 1.589 3.279-2.118 3.28-.53 3.279-1.764 3.279-2.824 3.28-.176 3.279 1.941 3.279-1.588 3.28-3.706 3.279-3 3.279.706 3.28 2.47 3.279-1.235 3.279-3.176 3.28.353 3.279-3.882 3.279-1.765 3.28-2.824 3.279 7.06 3.279-7.06 3.28-3.176 3.279 2.294 3.279-2.823 3.28-.883 3.279-6.706 3.279 3.353 3.28 1.941 3.279-7.588 3.279 3 3.28-4.764 3.279-3.706 3.279 5.647 3.28-1.235 3.279-10.589 3.279 7.941 3.28-10.588 3.279-3.882 3.28 1.059 3.278-3.882 3.28 2.117 3.28-2.647 3.278.883 3.28-2.824 3.28-1.235 3.278 2.294 3.28-4.941 3.28-9.177 3.278 3.706 3.28.53 3.28-5.824 3.278-3.53 3.28 4.413 3.28-7.941 3.278 2.117 3.28-8.117 3.28 1.411 3.278-3.176h3.28l3.28 7.941 3.279-11.647 3.279 4.412 3.28-6.706 3.279-3.706 3.279 3.353 3.28-5.823 3.279-.353 3.279-4.412 3.28-.882 3.279-5.47 3.279-4.06 3.28.706 3.279 6.883 3.279-7.06 3.28-4.058 3.279-3.176 3.279-3.177 3.28-4.588" fill="none" stroke="#ff7f0e" stroke-linecap="square" stroke-width="1.5" id="line2d_14"/><path d="M57.6 307.584V41.472" fill="none" stroke="#000" stroke-linecap="square" stroke-width=".8" id="patch_3"/><path d="M414.72 307.584V41.472" fill="none" stroke="#000" stroke-linecap="square" stroke-width=".8" id="patch_4"/><path d="M57.6 307.584h357.12" fill="none" stroke="#000" stroke-linecap="square" stroke-width=".8" id="patch_5"/><path d="M57.6 41.472h357.12" fill="none" stroke="#000" stroke-linecap="square" stroke-width=".8" id="patch_6"/><text x="236.16" y="35.472" font-family="DejaVu Sans" font-size="12" font-weight="400" text-anchor="middle" id="text_15">Coin Flips for exp(x)*(1-x)</text><g id="legend_1"><path d="M64.6 78.828h187.936q2 0 2-2V48.472q0-2-2-2H64.6q-2 0-2 2v28.356q0 2 2 2z" fill="#fff" opacity=".8" stroke="#ccc" id="patch_7"/><path d="M66.6 54.57h20" fill="none" stroke="#1f77b4" stroke-linecap="square" stroke-width="1.5" id="line2d_15"/><text x="94.6" y="58.07" font-family="DejaVu Sans" font-size="10" font-weight="400" id="text_16">Coin Flip Lower Bound (Mendo)</text><path d="M66.6 69.249h20" fill="none" stroke="#ff7f0e" stroke-linecap="square" stroke-width="1.5" id="line2d_17"/><text x="94.6" y="72.749" font-family="DejaVu Sans" font-size="10" font-weight="400" id="text_17">Avg. Coins Flipped exp(x)*(1-x)</text></g></g></g><defs><clipPath id="pc43e6abf41"><path d="M57.6 41.472h357.12v266.112H57.6z"/></clipPath></defs></svg>
